justvector/hyves.svg

<?xml version="1.0" encoding="iso-8859-1"?>
<!-- Generator: Adobe Illustrator 15.0.0, SVG Export Plug-In . SVG Version: 6.00 Build 0)  -->
<!DOCTYPE svg PUBLIC "-//W3C//DTD SVG 1.1//EN" "http://www.w3.org/Graphics/SVG/1.1/DTD/svg11.dtd">
<svg version="1.1" id="Icons" xmlns="http://www.w3.org/2000/svg" xmlns:xlink="http://www.w3.org/1999/xlink" x="0px" y="0px"
	 width="100px" height="100px" viewBox="0 0 100 100" style="enable-background:new 0 0 100 100;" xml:space="preserve">
<path id="Hyves" style="fill-rule:evenodd;clip-rule:evenodd;" d="M73.026,5.002c2.055,0,4.125,0,6.188,0
	c2.143-0.136,5.444,6.06,4.54,8.706c-0.562,1.742-5.175,2.531-6.188,3.832c-1.753,2.232-1.094,9.15-1.094,13.801
	c0,12.263,0,24.183,0,37.221c0,2.084-0.271,6.245,0.371,6.894c0.661,0.659,3.039,0.235,3.988,0.542
	c2.189,0.704,4.839,4.936,3.111,7.805c-0.479,0.776-2.677,1.281-4.197,1.995c-3.598,1.714-9.785,3.681-14.912,3.266
	c-2.904-0.207-7.552-4.484-7.092-7.625c0.199-1.353,1.348-2.083,2.912-2.725c1.05-0.415,3.464-0.18,4.358-1.083
	c1.149-1.127,0.264-5.864,0.174-8.519c-0.035-1.622,0.037-2.751,0-4.735c0-1.417,0.144-3.926-0.174-4.368
	c-0.786-1.011-7.479-0.199-8.908,0c-6.783,1.002-10.408,1.488-16.017,3.266c-1.691,0.551-5.615,1.219-6.747,2.934
	c-1.165,1.786-0.225,7.787,0,10.521c0.11,1.265-0.36,3.682,0.2,4.53c0.742,1.182,3.808,0.648,4.521,0.901
	c1.763,0.614,4.341,3.321,4.025,6.002c-0.571,4.637-11.83,6.28-17.302,6.722c-2.107,0.153-2.887,0.207-4.368-0.162
	c-2.406-0.677-5.526-3.934-5.273-6.37c0.208-1.978,2.993-3.133,4.938-3.826c0.616-0.226,1.816-0.307,2.151-0.723
	c0.742-0.885,0.291-4.646,0-6.884c-0.805-6.669-0.976-14.736-1.085-21.61c-0.107-8.176-0.543-13.869-0.543-22.352
	c0-2.383,0.228-6.289-0.353-7.078c-0.687-0.853-2.884-0.7-4.188-1.259c-2.27-0.976-3.4-2.428-4.566-5.27c0-0.533,0-1.089,0-1.625
	c1.953-3.817,6.883-4.619,12.192-5.641c7.505-1.435,14.776-2.823,16.938,3.452c0.436,1.25,0.706,3.361,0,4.53
	c-1.311,2.169-6.376,1.7-7.462,3.47c-0.471,0.729-0.379,3.447-0.379,5.807c0,7.078-0.895,12.015-0.353,19.237
	c0.072,1.055,0.416,4.366,1.104,4.715c1.076,0.559,3.011-0.349,3.997-0.527c7.145-1.549,11.396-2.632,19.291-3.456
	c2.035-0.23,6.982-0.268,8.005-1.088c1.5-1.254,0.577-4.945,0.353-6.723c-0.625-5.432-0.553-9.293,0-14.528
	c0.225-1.993,0.859-5.838-0.174-6.906c-0.658-0.673-3.235-0.763-4.006-1.092c-2.749-1.151-6.04-3.988-4.902-7.991
	c0.29-1.073,1.938-1.938,3.076-2.525C63.269,6.324,68.116,5.999,73.026,5.002z"/>
</svg>

<?xml version="1.0" encoding="UTF-8" standalone="no"?>
<!DOCTYPE svg PUBLIC "-//W3C//DTD SVG 1.1//EN" "http://www.w3.org/Graphics/SVG/1.1/DTD/svg11.dtd">
<svg width="100%" height="100%" viewBox="0 0 100 100" version="1.1" xmlns="http://www.w3.org/2000/svg" xmlns:xlink="http://www.w3.org/1999/xlink" xml:space="preserve" xmlns:serif="http://www.serif.com/" style="fill-rule:evenodd;clip-rule:evenodd;stroke-linejoin:round;stroke-miterlimit:2;">
    <path id="Hyves" d="M73.026,5.002L79.214,5.002C81.357,4.866 84.658,11.062 83.754,13.708C83.192,15.45 78.579,16.239 77.566,17.54C75.813,19.772 76.472,26.69 76.472,31.341L76.472,68.562C76.472,70.646 76.201,74.807 76.843,75.456C77.504,76.115 79.882,75.691 80.831,75.998C83.02,76.702 85.67,80.934 83.942,83.803C83.463,84.579 81.265,85.084 79.745,85.798C76.147,87.512 30.255,94.443 24.783,94.885C22.676,95.038 21.896,95.092 20.415,94.723C18.009,94.046 14.889,90.789 15.142,88.353C15.35,86.375 12.662,22.193 11.496,19.351L11.496,17.726C13.449,13.909 18.379,13.107 23.688,12.085C31.193,10.65 68.116,5.999 73.026,5.002Z"/>
</svg>
